public/images/decentralization.svg

<svg fill="none" height="299" viewBox="0 0 192 299" width="192" xmlns="http://www.w3.org/2000/svg" xmlns:xlink="http://www.w3.org/1999/xlink"><filter id="a" color-interpolation-filters="sRGB" filterUnits="userSpaceOnUse" height="300.526" width="190.983" x=".339456" y=".132424"><feFlood flood-opacity="0" result="BackgroundImageFix"/><feColorMatrix in="SourceAlpha" result="hardAlpha" type="matrix" values="0 0 0 0 0 0 0 0 0 0 0 0 0 0 0 0 0 0 127 0"/><feOffset dx="12.4146" dy="12.4146"/><feGaussianBlur stdDeviation="18.622"/><feComposite in2="hardAlpha" operator="out"/><feColorMatrix type="matrix" values="0 0 0 0 0.823529 0 0 0 0 0.823529 0 0 0 0 0.823529 0 0 0 1 0"/><feBlend in2="BackgroundImageFix" mode="normal" result="effect1_dropShadow_527_6755"/><feColorMatrix in="SourceAlpha" result="hardAlpha" type="matrix" values="0 0 0 0 0 0 0 0 0 0 0 0 0 0 0 0 0 0 127 0"/><feOffset dx="-12.4146" dy="-12.4146"/><feGaussianBlur stdDeviation="18.622"/><feComposite in2="hardAlpha" operator="out"/><feColorMatrix type="matrix" values="0 0 0 0 1 0 0 0 0 1 0 0 0 0 1 0 0 0 0.5 0"/><feBlend in2="effect1_dropShadow_527_6755" mode="normal" result="effect2_dropShadow_527_6755"/><feColorMatrix in="SourceAlpha" result="hardAlpha" type="matrix" values="0 0 0 0 0 0 0 0 0 0 0 0 0 0 0 0 0 0 127 0"/><feOffset dx="4.96586" dy="4.96586"/><feGaussianBlur stdDeviation="4.96586"/><feComposite in2="hardAlpha" operator="out"/><feColorMatrix type="matrix" values="0 0 0 0 0.5 0 0 0 0 0.5 0 0 0 0 0.5 0 0 0 0.2 0"/><feBlend in2="effect2_dropShadow_527_6755" mode="normal" result="effect3_dropShadow_527_6755"/><feBlend in="SourceGraphic" in2="effect3_dropShadow_527_6755" mode="normal" result="shape"/><feColorMatrix in="SourceAlpha" result="hardAlpha" type="matrix" values="0 0 0 0 0 0 0 0 0 0 0 0 0 0 0 0 0 0 127 0"/><feOffset dx="4.44444"/><feGaussianBlur stdDeviation="11.1111"/><feComposite in2="hardAlpha" k2="-1" k3="1" operator="arithmetic"/><feColorMatrix type="matrix" values="0 0 0 0 0 0 0 0 0 0 0 0 0 0 0 0 0 0 0.15 0"/><feBlend in2="shape" mode="normal" result="effect4_innerShadow_527_6755"/><feColorMatrix in="SourceAlpha" result="hardAlpha" type="matrix" values="0 0 0 0 0 0 0 0 0 0 0 0 0 0 0 0 0 0 127 0"/><feOffset dx="-4.44444"/><feGaussianBlur stdDeviation="11.1111"/><feComposite in2="hardAlpha" k2="-1" k3="1" operator="arithmetic"/><feColorMatrix type="matrix" values="0 0 0 0 0 0 0 0 0 0 0 0 0 0 0 0 0 0 0.15 0"/><feBlend in2="effect4_innerShadow_527_6755" mode="normal" result="effect5_innerShadow_527_6755"/></filter><filter id="b" color-interpolation-filters="sRGB" filterUnits="userSpaceOnUse" height="5.55469" width="29.5441" x="79.2157" y="49.791"><feFlood flood-opacity="0" result="BackgroundImageFix"/><feBlend in="SourceGraphic" in2="BackgroundImageFix" mode="normal" result="shape"/><feColorMatrix in="SourceAlpha" result="hardAlpha" type="matrix" values="0 0 0 0 0 0 0 0 0 0 0 0 0 0 0 0 0 0 127 0"/><feOffset dx="-26.6667"/><feGaussianBlur stdDeviation="2.22222"/><feComposite in2="hardAlpha" k2="-1" k3="1" operator="arithmetic"/><feColorMatrix type="matrix" values="0 0 0 0 0 0 0 0 0 0 0 0 0 0 0 0 0 0 0.25 0"/><feBlend in2="shape" mode="normal" result="effect1_innerShadow_527_6755"/></filter><filter id="c" color-interpolation-filters="sRGB" filterUnits="userSpaceOnUse" height="2.22266" width="79.9991" x="54.1669" y="246.555"><feFlood flood-opacity="0" result="BackgroundImageFix"/><feBlend in="SourceGraphic" in2="BackgroundImageFix" mode="normal" result="shape"/><feColorMatrix in="SourceAlpha" result="hardAlpha" type="matrix" values="0 0 0 0 0 0 0 0 0 0 0 0 0 0 0 0 0 0 127 0"/><feOffset dx="-26.6667"/><feGaussianBlur stdDeviation="2.22222"/><feComposite in2="hardAlpha" k2="-1" k3="1" operator="arithmetic"/><feColorMatrix type="matrix" values="0 0 0 0 0 0 0 0 0 0 0 0 0 0 0 0 0 0 0.25 0"/><feBlend in2="shape" mode="normal" result="effect1_innerShadow_527_6755"/></filter><linearGradient id="d" gradientUnits="userSpaceOnUse" x1="49.7203" x2="141.942" y1="55.4451" y2="246.556"><stop offset="0" stop-color="#758363"/><stop offset=".307692" stop-color="#424a38"/><stop offset="1" stop-color="#1a1d16"/></linearGradient><radialGradient id="e" cx="0" cy="0" gradientTransform="matrix(0 29.1694 -27.1225 0 96.5732 189.038)" gradientUnits="userSpaceOnUse" r="1"><stop offset="0" stop-color="#91fe03"/><stop offset=".9375" stop-color="#80e61a"/></radialGradient><linearGradient id="f"><stop offset="0" stop-color="#acaca0"/><stop offset=".5" stop-color="#e7e7e4"/><stop offset="1" stop-color="#acaca0"/></linearGradient><linearGradient id="g" gradientUnits="userSpaceOnUse" x1="83.6602" x2="108.759" xlink:href="#f" y1="52.5688" y2="52.5688"/><linearGradient id="h" gradientUnits="userSpaceOnUse" x1="134.166" x2="58.6105" xlink:href="#f" y1="247.666" y2="247.666"/><radialGradient id="i" cx="0" cy="0" gradientTransform="matrix(0 62.7778 -123.874 0 96.3869 55.4451)" gradientUnits="userSpaceOnUse" r="1"><stop offset="0" stop-color="#efff9e"/><stop offset=".25" stop-color="#d4fe03"/><stop offset=".5625" stop-color="#b2ed38"/><stop offset="1" stop-color="#99e052"/></radialGradient><linearGradient id="j" gradientUnits="userSpaceOnUse" x1="141.665" x2="49.998" y1="151.002" y2="151.002"><stop offset="0" stop-color="#32382b" stop-opacity="0"/><stop offset=".25" stop-color="#c2c3c0" stop-opacity=".15"/><stop offset=".5" stop-color="#fff" stop-opacity=".3"/><stop offset=".7" stop-color="#c2c3c0" stop-opacity=".15"/><stop offset="1" stop-color="#32382b" stop-opacity="0"/></linearGradient><g filter="url(#a)"><rect fill="url(#d)" height="191.304" rx="11.1111" width="91.6667" x="49.998" y="55.3496"/><path d="m113.103 196.85c-.019-.504-.475-.827-1.003-.827l-4.059.026c-3.087-.104-6.481.355-8.0837-.834-.0195-.026-.0391-.052-.0651-.071-1.2573-1.564.7228-8.323 1.2828-9.913.339-1.118.463-2.604-1.029-2.578-6.8853.969-12.468 12.582-17.0345 17.551-1.0944 1.247-2.4884 2.83-2.8206 3.186-.1694.174-.2541.394-.2476.62.0196.504.4756.827 1.0032.827l4.0584-.026c3.0877.104 6.4816-.355 8.0841.834.0196.026.0391.052.0652.071 1.2572 1.564-.7231 8.323-1.2833 9.913-.3388 1.118-.4625 2.604 1.0292 2.579 6.8856-.97 12.4679-12.582 17.0349-17.552 1.094-1.247 2.488-2.83 2.821-3.186.169-.174.254-.394.247-.62z" fill="url(#e)"/><path d="m113.103 196.85c-.019-.504-.475-.827-1.003-.827l-4.059.026c-3.087-.104-6.481.355-8.0837-.834-.0195-.026-.0391-.052-.0651-.071-1.2573-1.564.7228-8.323 1.2828-9.913.339-1.118.463-2.604-1.029-2.578-6.8853.969-12.468 12.582-17.0345 17.551-1.0944 1.247-2.4884 2.83-2.8206 3.186-.1694.174-.2541.394-.2476.62.0196.504.4756.827 1.0032.827l4.0584-.026c3.0877.104 6.4816-.355 8.0841.834.0196.026.0391.052.0652.071 1.2572 1.564-.7231 8.323-1.2833 9.913-.3388 1.118-.4625 2.604 1.0292 2.579 6.8856-.97 12.4679-12.582 17.0349-17.552 1.094-1.247 2.488-2.83 2.821-3.186.169-.174.254-.394.247-.62z" fill="#fff" fill-opacity=".2"/><path d="m83.6602 52.5568c0-1.5275 1.2382-2.7658 2.7657-2.7658h19.5681c1.527 0 2.765 1.2383 2.765 2.7658v2.7898h-25.0988z" fill="#1a1a1a"/><g filter="url(#b)"><path d="m83.6602 52.5568c0-1.5275 1.2382-2.7658 2.7657-2.7658h19.5681c1.527 0 2.765 1.2383 2.765 2.7658v2.7898h-25.0988z" fill="url(#g)"/></g><g filter="url(#c)"><path d="m134.166 246.555c0 1.227-.995 2.222-2.222 2.222h-71.1113c-1.2273 0-2.2222-.995-2.2222-2.222z" fill="url(#h)"/></g><path d="m49.998 119.842h91.667v-53.3819c0-6.1364-4.975-11.1111-11.111-11.1111h-69.4449c-6.1365 0-11.1111 4.9747-11.1111 11.1112z" fill="url(#i)"/><path d="m49.998 66.4607c0-6.1365 4.9747-11.1111 11.1112-11.1111h69.4448c6.136 0 11.111 4.9746 11.111 11.1111v169.0823c0 6.136-4.975 11.111-11.111 11.111h-69.4449c-6.1365 0-11.1111-4.975-11.1111-11.111z" fill="url(#j)" fill-opacity=".7"/></g></svg>

<svg width="192" height="299" viewBox="0 0 192 299" fill="none" xmlns="http://www.w3.org/2000/svg">
<g filter="url(#filter0_dddii_527_6755)">
<rect x="49.998" y="55.3496" width="91.6667" height="191.304" rx="11.1111" fill="url(#paint0_linear_527_6755)"/>
<path d="M113.103 196.85C113.084 196.346 112.628 196.023 112.1 196.023L108.041 196.049C104.954 195.945 101.56 196.404 99.9573 195.215C99.9378 195.189 99.9182 195.163 99.8922 195.144C98.6349 193.58 100.615 186.821 101.175 185.231C101.514 184.113 101.638 182.627 100.146 182.653C93.2607 183.622 87.678 195.235 83.1115 200.204C82.0171 201.451 80.6231 203.034 80.2909 203.39C80.1215 203.564 80.0368 203.784 80.0433 204.01C80.0629 204.514 80.5189 204.837 81.0465 204.837L85.1049 204.811C88.1926 204.915 91.5865 204.456 93.189 205.645C93.2086 205.671 93.2281 205.697 93.2542 205.716C94.5114 207.28 92.5311 214.039 91.9709 215.629C91.6321 216.747 91.5084 218.233 93.0001 218.208C99.8857 217.238 105.468 205.626 110.035 200.656C111.129 199.409 112.523 197.826 112.856 197.47C113.025 197.296 113.11 197.076 113.103 196.85Z" fill="url(#paint1_radial_527_6755)"/>
<path d="M113.103 196.85C113.084 196.346 112.628 196.023 112.1 196.023L108.041 196.049C104.954 195.945 101.56 196.404 99.9573 195.215C99.9378 195.189 99.9182 195.163 99.8922 195.144C98.6349 193.58 100.615 186.821 101.175 185.231C101.514 184.113 101.638 182.627 100.146 182.653C93.2607 183.622 87.678 195.235 83.1115 200.204C82.0171 201.451 80.6231 203.034 80.2909 203.39C80.1215 203.564 80.0368 203.784 80.0433 204.01C80.0629 204.514 80.5189 204.837 81.0465 204.837L85.1049 204.811C88.1926 204.915 91.5865 204.456 93.189 205.645C93.2086 205.671 93.2281 205.697 93.2542 205.716C94.5114 207.28 92.5311 214.039 91.9709 215.629C91.6321 216.747 91.5084 218.233 93.0001 218.208C99.8857 217.238 105.468 205.626 110.035 200.656C111.129 199.409 112.523 197.826 112.856 197.47C113.025 197.296 113.11 197.076 113.103 196.85Z" fill="white" fill-opacity="0.2"/>
<path d="M83.6602 52.5568C83.6602 51.0293 84.8984 49.791 86.4259 49.791H105.994C107.521 49.791 108.759 51.0293 108.759 52.5568V55.3466H83.6602V52.5568Z" fill="#1A1A1A"/>
<g filter="url(#filter1_i_527_6755)">
<path d="M83.6602 52.5568C83.6602 51.0293 84.8984 49.791 86.4259 49.791H105.994C107.521 49.791 108.759 51.0293 108.759 52.5568V55.3466H83.6602V52.5568Z" fill="url(#paint2_linear_527_6755)"/>
</g>
<g filter="url(#filter2_i_527_6755)">
<path d="M134.166 246.555C134.166 247.782 133.171 248.777 131.944 248.777H60.8327C59.6054 248.777 58.6105 247.782 58.6105 246.555V246.555H134.166V246.555Z" fill="url(#paint3_linear_527_6755)"/>
</g>
<path d="M49.998 119.842H141.665V66.4601C141.665 60.3237 136.69 55.349 130.554 55.349H61.1091C54.9726 55.349 49.998 60.3237 49.998 66.4602V119.842Z" fill="url(#paint4_radial_527_6755)"/>
<g style="mix-blend-mode:plus-lighter">
<path d="M49.998 66.4607C49.998 60.3242 54.9727 55.3496 61.1092 55.3496H130.554C136.69 55.3496 141.665 60.3242 141.665 66.4607V235.543C141.665 241.679 136.69 246.654 130.554 246.654H61.1091C54.9726 246.654 49.998 241.679 49.998 235.543V66.4607Z" fill="url(#paint5_linear_527_6755)" fill-opacity="0.7"/>
</g>
</g>
<defs>
<filter id="filter0_dddii_527_6755" x="0.339456" y="0.132424" width="190.983" height="300.526" filterUnits="userSpaceOnUse" color-interpolation-filters="sRGB">
<feFlood flood-opacity="0" result="BackgroundImageFix"/>
<feColorMatrix in="SourceAlpha" type="matrix" values="0 0 0 0 0 0 0 0 0 0 0 0 0 0 0 0 0 0 127 0" result="hardAlpha"/>
<feOffset dx="12.4146" dy="12.4146"/>
<feGaussianBlur stdDeviation="18.622"/>
<feComposite in2="hardAlpha" operator="out"/>
<feColorMatrix type="matrix" values="0 0 0 0 0.823529 0 0 0 0 0.823529 0 0 0 0 0.823529 0 0 0 1 0"/>
<feBlend mode="normal" in2="BackgroundImageFix" result="effect1_dropShadow_527_6755"/>
<feColorMatrix in="SourceAlpha" type="matrix" values="0 0 0 0 0 0 0 0 0 0 0 0 0 0 0 0 0 0 127 0" result="hardAlpha"/>
<feOffset dx="-12.4146" dy="-12.4146"/>
<feGaussianBlur stdDeviation="18.622"/>
<feComposite in2="hardAlpha" operator="out"/>
<feColorMatrix type="matrix" values="0 0 0 0 1 0 0 0 0 1 0 0 0 0 1 0 0 0 0.5 0"/>
<feBlend mode="normal" in2="effect1_dropShadow_527_6755" result="effect2_dropShadow_527_6755"/>
<feColorMatrix in="SourceAlpha" type="matrix" values="0 0 0 0 0 0 0 0 0 0 0 0 0 0 0 0 0 0 127 0" result="hardAlpha"/>
<feOffset dx="4.96586" dy="4.96586"/>
<feGaussianBlur stdDeviation="4.96586"/>
<feComposite in2="hardAlpha" operator="out"/>
<feColorMatrix type="matrix" values="0 0 0 0 0.5 0 0 0 0 0.5 0 0 0 0 0.5 0 0 0 0.2 0"/>
<feBlend mode="normal" in2="effect2_dropShadow_527_6755" result="effect3_dropShadow_527_6755"/>
<feBlend mode="normal" in="SourceGraphic" in2="effect3_dropShadow_527_6755" result="shape"/>
<feColorMatrix in="SourceAlpha" type="matrix" values="0 0 0 0 0 0 0 0 0 0 0 0 0 0 0 0 0 0 127 0" result="hardAlpha"/>
<feOffset dx="4.44444"/>
<feGaussianBlur stdDeviation="11.1111"/>
<feComposite in2="hardAlpha" operator="arithmetic" k2="-1" k3="1"/>
<feColorMatrix type="matrix" values="0 0 0 0 0 0 0 0 0 0 0 0 0 0 0 0 0 0 0.15 0"/>
<feBlend mode="normal" in2="shape" result="effect4_innerShadow_527_6755"/>
<feColorMatrix in="SourceAlpha" type="matrix" values="0 0 0 0 0 0 0 0 0 0 0 0 0 0 0 0 0 0 127 0" result="hardAlpha"/>
<feOffset dx="-4.44444"/>
<feGaussianBlur stdDeviation="11.1111"/>
<feComposite in2="hardAlpha" operator="arithmetic" k2="-1" k3="1"/>
<feColorMatrix type="matrix" values="0 0 0 0 0 0 0 0 0 0 0 0 0 0 0 0 0 0 0.15 0"/>
<feBlend mode="normal" in2="effect4_innerShadow_527_6755" result="effect5_innerShadow_527_6755"/>
</filter>
<filter id="filter1_i_527_6755" x="79.2157" y="49.791" width="29.5441" height="5.55469" filterUnits="userSpaceOnUse" color-interpolation-filters="sRGB">
<feFlood flood-opacity="0" result="BackgroundImageFix"/>
<feBlend mode="normal" in="SourceGraphic" in2="BackgroundImageFix" result="shape"/>
<feColorMatrix in="SourceAlpha" type="matrix" values="0 0 0 0 0 0 0 0 0 0 0 0 0 0 0 0 0 0 127 0" result="hardAlpha"/>
<feOffset dx="-26.6667"/>
<feGaussianBlur stdDeviation="2.22222"/>
<feComposite in2="hardAlpha" operator="arithmetic" k2="-1" k3="1"/>
<feColorMatrix type="matrix" values="0 0 0 0 0 0 0 0 0 0 0 0 0 0 0 0 0 0 0.25 0"/>
<feBlend mode="normal" in2="shape" result="effect1_innerShadow_527_6755"/>
</filter>
<filter id="filter2_i_527_6755" x="54.1669" y="246.555" width="79.9991" height="2.22266" filterUnits="userSpaceOnUse" color-interpolation-filters="sRGB">
<feFlood flood-opacity="0" result="BackgroundImageFix"/>
<feBlend mode="normal" in="SourceGraphic" in2="BackgroundImageFix" result="shape"/>
<feColorMatrix in="SourceAlpha" type="matrix" values="0 0 0 0 0 0 0 0 0 0 0 0 0 0 0 0 0 0 127 0" result="hardAlpha"/>
<feOffset dx="-26.6667"/>
<feGaussianBlur stdDeviation="2.22222"/>
<feComposite in2="hardAlpha" operator="arithmetic" k2="-1" k3="1"/>
<feColorMatrix type="matrix" values="0 0 0 0 0 0 0 0 0 0 0 0 0 0 0 0 0 0 0.25 0"/>
<feBlend mode="normal" in2="shape" result="effect1_innerShadow_527_6755"/>
</filter>
<linearGradient id="paint0_linear_527_6755" x1="49.7203" y1="55.4451" x2="141.942" y2="246.556" gradientUnits="userSpaceOnUse">
<stop stop-color="#758363"/>
<stop offset="0.307692" stop-color="#424A38"/>
<stop offset="1" stop-color="#1A1D16"/>
</linearGradient>
<radialGradient id="paint1_radial_527_6755" cx="0" cy="0" r="1" gradientUnits="userSpaceOnUse" gradientTransform="translate(96.5732 189.038) rotate(90) scale(29.1694 27.1225)">
<stop stop-color="#91FE03"/>
<stop offset="0.9375" stop-color="#80E61A"/>
</radialGradient>
<linearGradient id="paint2_linear_527_6755" x1="83.6602" y1="52.5688" x2="108.759" y2="52.5688" gradientUnits="userSpaceOnUse">
<stop stop-color="#ACACA0"/>
<stop offset="0.5" stop-color="#E7E7E4"/>
<stop offset="1" stop-color="#ACACA0"/>
</linearGradient>
<linearGradient id="paint3_linear_527_6755" x1="134.166" y1="247.666" x2="58.6105" y2="247.666" gradientUnits="userSpaceOnUse">
<stop stop-color="#ACACA0"/>
<stop offset="0.5" stop-color="#E7E7E4"/>
<stop offset="1" stop-color="#ACACA0"/>
</linearGradient>
<radialGradient id="paint4_radial_527_6755" cx="0" cy="0" r="1" gradientUnits="userSpaceOnUse" gradientTransform="translate(96.3869 55.4451) rotate(90) scale(62.7778 123.874)">
<stop stop-color="#EFFF9E"/>
<stop offset="0.25" stop-color="#D4FE03"/>
<stop offset="0.5625" stop-color="#B2ED38"/>
<stop offset="1" stop-color="#99E052"/>
</radialGradient>
<linearGradient id="paint5_linear_527_6755" x1="141.665" y1="151.002" x2="49.998" y2="151.002" gradientUnits="userSpaceOnUse">
<stop stop-color="#32382B" stop-opacity="0"/>
<stop offset="0.25" stop-color="#C2C3C0" stop-opacity="0.15"/>
<stop offset="0.5" stop-color="white" stop-opacity="0.3"/>
<stop offset="0.7" stop-color="#C2C3C0" stop-opacity="0.15"/>
<stop offset="1" stop-color="#32382B" stop-opacity="0"/>
</linearGradient>
</defs>
</svg>
